!!!COM: Victor Masse/
!!!CNT: Francais
!!!TXO: Francais
!!!OTL: La Chaumie\re
!!!LYR: August Brizeux
!!!OPR: Chants Bretons
!!!ENC: Jacob Pegg
!!!YOR: Romantic French Song 1830-1870 -David Tunley, ed.,
!!!YOR: New York: Garland Publishing, Inc., 1995, Vol. 4
!!!ODT: 1853/
!!NB: Vocal melody and text only encoded.
!!NB: First instance of melodic material only encoded.
**kern	**silbe
*clef G2	*
*k[f#]	*
*M6/8	*
!!There are annotations throughout denoting whether
!!it is the husband or the wife singing, although they are
!!written on the same clef. 
=2	=2
4r	.
8r	.
{4d	{As~
8d	~tu
=3	=3
4e	vu
8f#	no-
4g	-tre
8a	ba-
=4	=4
(4a	-ron-
8g)}	-ne?}
{4d	{L'or
8d	qui
=5	=5
4e	cou-
8f#	-vrait
4g	sa
8a	cou-
=6	=6
(4a	-ron-
8g)}	-ne?}
{4b	{L'or
8b	qui
=7	=7
4e	cou-
8e	-vrait
4a	sa
8a	cou-
=8	=8
4d	-ron-
8d}	-ne?}
{4g	{L'or
8g	qui
=9	=9
4c	cou-
8c	-vrait
4f#	ses
8e	ap-
=10	=10
4d}	-pas?}
8r	.
{4d	{Les
8d	mes-
=11	=11
4e	-sieurs
8f#	dans
4g	la
8a	cha-
=12	=12
(4a	-pel-
8g)	-le
4b	mur-
8b	-mu-
=13	=13
4b	-raient
8b	tous
4b	qu'elle
8a	est
=14	=14
(4b	bel-
8a)}	-le!}
{4f#	{Mur-
8a	-mu-
=15	=15
4a	-raient
8g	tous:
4f#	qu'elle
8e	est
=16	=16
[2.a	bel-
=17	=17
2.a]	|
=18	=18
4d}	-le!}
8r	.
4r	.
8r	.
=19	=19
*M2/4	*
!!(La Femme)
{2f#	{Oui,
=20	=20
2g	mais
=21	=21
(8a	ils
8b	ne
8cc	pria-
8a)	-ient
=22	=22
[4d	pas.
8d]}	|}
8r	.
=23	=23
{2ee-	{Oui,
=24	=24
2g	mais
=25	=25
(8a	ils
8e	ne
8f#	pria-
8dd;)	-ient
=26	=26
*M6/8	*
4g}	pas.}
8r	.
4r	.
8r	.
=27	=27
2.r	.
!!mm.28-87 are written-out strophes
=87	=87
8r	.
*M2/4	*
{16b	{J'ai
16b	tout
4b	vu;
=88	=88
8r	.
8e	Mais
8f#	crois~
8g#	~me,
=89	=89
8b	Pier-
8a	-re,
8g#	Com-
8a	-me
=90	=90
8dd	nous
8cc	dans
8b	ta
8a	chau-
=91	=91
(4cc	-mie\-
8b)}	-re}
8r	.
=92	=92
{2b-	{Peut~
=93	=93
2a-	~e^tre
=94	=94
(8b-	ils
8cc	ne
8dd-	s'ai-
8b-)	-ment
=95	=95
[4ee-	pas!
8ee-]}	|}
8r	.
=96	=96
{(2een	{Peut~
=97	=97
8g)	~e^-
(32a	|
32g	|
32f#	|
32g	|
8ff#	|
8ee)	-tre
=98	=98
8dd	ils
8cc	ne
8e;	s'ai-
8f#	-ment
=99	=99
*M6/8	*
4g}	pas!}
8r	.
4r	.
8r	.
*-	*-
